X: 1
T: Zachareel
C: trad.
O: arr. Calvin Vollrath
N: notation by Trent Bruner
R: mixed
S: Fiddle Hell Online 2021-11-__
Z: 2021 John Chambers <jc:trillian.mit.edu>
M: 2/4
L: 1/16
K: A
A3F "^A"|:\
"A"EAcA EAcA |\
[M:3/4] "E7"EAce dcBG "A"A2(3DEF |\
"G"=GABc "D/F#"defd "E"e2(3DEF |
"G"=GABc "D/F#"defd "E7"edBd |\
[1 [M:2/4] cAA2 "A"A3F :|\
[2 "E7"cAA2 "A"A2(3efg |]\
"^B"|: "A"a2ga b2(3efg |
a2ga b2e2 |\
[M:3/4] "E7"fgaf edcB "A"A2(3DEF |\
"G"=GABc "D/F#"defd "E"e2(3DEF |
"G"=GABc "D/F#"defd "E"edB!coda!d |\
[1 [M:2/4] cAA2 "A"A2(3efg :|\
[2 "E7"cAA2 "A"A3F |]\
!coda! "E7"(3cdcA2 "A"a2z2 |]
